X:1
T:Title
%%score { ( 1 3 ) | ( 2 4 ) }
L:1/8
M:6/4
K:Eb
V:1 treble nm="Grand Piano"
V:3 treble 
V:2 bass 
V:4 bass 
V:1
 z6 z4[Q:1/4=114] [EG][FA] | [GB]3 [Ac] [GB]2 [Ge]2 [Bd]2 [DAc]2 | %2
 [EGB]2 [DGB]3 [B,FA] [B,EG]4 [GB]2 | [Ac]2 [Bd]2 [Ac]2 [GB]2 [FA]2 [EG]2 | [DF]6- [DF]4 [EG][FA] | %5
 [GB]3 [Ac] [GB]2 [Ge]2 [Bd]2 [DAc]2 | [EGB]2 [DGB]3 [B,FA] [B,EG]4 [GB]A | %7
 [B,EG]3 [CEA] [B,EG]2 [A,DF]2 [G,E]2 [A,DF]2 | [G,B,E]12 | .[DF]12 | [DB]4 [DF]2 [EG]6 | .[EG]12 | %12
 E2- [EB]2 c2 [DB]2 [Ec]2 [Fd]2 | .[Ge]12 | [EGB]2 [EG]2 [Ge]2 [EGB]6 | %15
 [B,EG]2 [CGB]2 [CFA]2 [B,EG]4 [G,B,E][G,B,E] | [A,B,F]6 [G,B,E]6 |] %17
V:2
 z6 z4 [E,B,]2 | [E,E]3 [E,E] [E,E]2 [E,B,]2 [E,C]2 E,2 | E,2 B,,3 B,, E,4 [E,E]2 | %3
 [E,E]2 [E,E]2 [E,E]2 [E,E]2 [D,B,]2 [E,B,]2 | [B,,B,]6- [B,,B,]4 [E,B,]2 | %5
 [E,E]3 [E,E] [E,E]2 [E,B,]2 [E,C]2 E,2 | E,2 B,,3 B,, E,4 z F | B,,3 B,, B,,2 B,,2 B,,2 B,,2 | %8
 E,12 | B,,2 B,,2 B,,2 B,,2 [B,,B,]2 [B,,B,]2 | [B,,B,]4 [B,,B,]2 [E,B,]6 | %11
 [C,C]2 C,2 C,2 C,2 C,2 C,2 | z2 B,2 [F,=A,E]2 [B,,B,]6 | [E,B,]2 E,2 E,2 E,2 [E,C]2 E,2 | %14
 z2 B,2 [E,B,]2 E,6 | E,2 A,,2 A,,2 B,,4 B,,B,, | B,,2 C,2 D,2 E,6 |] %17
V:3
 x12 | x12 | x12 | x12 | x12 | x12 | z6 z4 C2 | x12 | x12 | B,2 B,2 B,2 B,2 [_D=E]2 [=DF]2 | x12 | %11
 z2 C2 C2 C2 [CE_G]2 [CE=G]2 | .[C=A]6 z6 | z2 B,2 B,2 B,2 [Bd]2 [DAc]2 | x12 | x12 | x12 |] %17
V:4
 x12 | x12 | x12 | x12 | x12 | x12 | z6 z4 A,,2 | x12 | x12 | x12 | x12 | x12 | .F,6 z6 | x12 | %14
 .E,6 z6 | x12 | x12 |] %17

